Adwaita++/apps/16/facebook.svg

<svg height="16" viewBox="0 0 16 16" width="16" xmlns="http://www.w3.org/2000/svg" xmlns:xlink="http://www.w3.org/1999/xlink">
  <path d="m0 0h16v16h-16z" fill="none"/>
  <path d="m9.242 16v-7.289h2.458l.366-2.851h-2.824v-1.818c0-.824.229-1.385 1.411-1.385h1.497v-2.546c-.729-.076-1.462-.113-2.195-.111-2.171 0-3.658 1.326-3.658 3.76v2.094h-2.447v2.857h2.447v7.289z" fill="#474747"/>
</svg>

<svg xmlns="http://www.w3.org/2000/svg" style="isolation:isolate" width="16" height="16" viewBox="0 0 16 16">
 <defs>
  <style id="current-color-scheme" type="text/css">
   .ColorScheme-Text { color:#474747; } .ColorScheme-Highlight { color:#5294e2; }
  </style>
  <linearGradient id="arrongin" x1="0%" x2="0%" y1="0%" y2="100%">
   <stop offset="0%" style="stop-color:#dd9b44"/>
   <stop offset="100%" style="stop-color:#ad6c16"/>
  </linearGradient>
  <linearGradient id="aurora" x1="0%" x2="0%" y1="0%" y2="100%">
   <stop offset="0%" style="stop-color:#09D4DF"/>
   <stop offset="100%" style="stop-color:#9269F4"/>
  </linearGradient>
  <linearGradient id="fitdance" x1="0%" x2="0%" y1="0%" y2="100%">
   <stop offset="0%" style="stop-color:#1AD6AB"/>
   <stop offset="100%" style="stop-color:#329DB6"/>
  </linearGradient>
  <linearGradient id="oomox" x1="0%" x2="0%" y1="0%" y2="100%">
   <stop offset="0%" style="stop-color:#efefe7"/>
   <stop offset="100%" style="stop-color:#8f8f8b"/>
  </linearGradient>
  <linearGradient id="rainblue" x1="0%" x2="0%" y1="0%" y2="100%">
   <stop offset="0%" style="stop-color:#00F260"/>
   <stop offset="100%" style="stop-color:#0575E6"/>
  </linearGradient>
  <linearGradient id="sunrise" x1="0%" x2="0%" y1="0%" y2="100%">
   <stop offset="0%" style="stop-color:#FF8501"/>
   <stop offset="100%" style="stop-color:#FFCB01"/>
  </linearGradient>
  <linearGradient id="telinkrin" x1="0%" x2="0%" y1="0%" y2="100%">
   <stop offset="0%" style="stop-color:#b2ced6"/>
   <stop offset="100%" style="stop-color:#6da5b7"/>
  </linearGradient>
  <linearGradient id="60spsycho" x1="0%" x2="0%" y1="0%" y2="100%">
   <stop offset="0%" style="stop-color:#df5940"/>
   <stop offset="25%" style="stop-color:#d8d15f"/>
   <stop offset="50%" style="stop-color:#e9882a"/>
   <stop offset="100%" style="stop-color:#279362"/>
  </linearGradient>
  <linearGradient id="90ssummer" x1="0%" x2="0%" y1="0%" y2="100%">
   <stop offset="0%" style="stop-color:#f618c7"/>
   <stop offset="20%" style="stop-color:#94ffab"/>
   <stop offset="50%" style="stop-color:#fbfd54"/>
   <stop offset="100%" style="stop-color:#0f83ae"/>
  </linearGradient>
  <clipPath id="_clipPath_uCxQoiCEJXqqDR1edXyItR4TL6xrea0S">
   <rect width="16" height="16"/>
  </clipPath>
 </defs>
 <g clip-path="url(#_clipPath_uCxQoiCEJXqqDR1edXyItR4TL6xrea0S)">
  <rect fill-opacity="0" width="16" height="16"/>
  <path style="fill:currentColor" class="ColorScheme-Text cls-2" d="M 9.242 16 L 9.242 8.711 L 11.7 8.711 L 12.066 5.86 L 9.242 5.86 L 9.242 4.042 C 9.242 3.218 9.471 2.657 10.653 2.657 L 12.15 2.657 L 12.15 0.111 C 11.421 0.035 10.688 -0.002 9.955 0 C 7.784 0 6.297 1.326 6.297 3.76 L 6.297 5.854 L 3.85 5.854 L 3.85 8.711 L 6.297 8.711 L 6.297 16 L 9.242 16 Z"/>
 </g>
</svg>
